X: 2098
T: Çiçek Nedir Görmeden
C: Selahattin İçli
O: Turkey
F: http://compmusic.upf.edu/node/140
N: kurdilihicazkar--sarki--nimsofyan--cicek_nedir--selahattin_icli
N: makam= kurdilihicazkar
N: form= sarki
N: usul= nimsofyan = 2/4
M: 2/4
L: 1/16
K: C _B _e _A 
Q: 1/4=96
%%MIDI tuningsystem comma53
gg2g gg2g  | .f2z2 efef  | gg2g gg2g  | \
w:  ARANAĞME  |   |   | 
.f2z2 efef  | 
w:   | 
gg2g gg2g  | .e'2z2 d'c'ba  | gg2e ff2d  | \
w:   |   |   | 
fgec d2GG  | 
w:   | 
gg2g gg2g  | .f2z2 efef  | gg2g gg2g  | \
w:  ARANAĞME  |   |   | 
.f2z2 efef  | 
w:   | 
gg2g gg2g  | .e'2z2 d'c'ba  | gg2e ff2d  | \
w:   |   |   | 
bc'af .g2z2  | 
w:   | 
gg3 gg3  | zf2e e3z  | f2g2 gb3  | a2g2 a4  | \
w:  Çi çek  ne dir   |  gör me den   |  boz kır la ra   |  dal mış san    | 
za2a a3a  | 
w:  Çal dı ğın  ka  | 
gb3 a4  | zc'2c' c'2c'2  | b2a2 g4  | gg3 gg3  | \
w:  pı lar dan   |  hep  na sî hat   |  al mış san    |  Çi çek  ne dir   | 
zf2e e3z  | f2g2 gb3  | 
w:  gör me den   |  boz kır la ra   | 
a2g2 a4  | za2a a3a  | gb3 a4  | zc'2c' c'2c'2  | \
w:  dal mış san    |  Çal dı ğın  ka  |  pı lar dan   |  hep  na sî hat   | 
b2a2 g4  | zg2g g2g2  | 
w:  al mış san    |  Üs te lik  bu   | 
e'2e'2 e'4  | d'2c'2 b2a2  | g2f2 f4  | \
w:  â lem de   |  aşk tan  mah rum   |  kal mış san    | 
z2de dc2z  | z2gg .g4  | f2e2 z2dc  | 
w:  De se ne  ki   |  gü ze lim   |  sen  hiç  ya şa  | 
BB3 B4  | z2AA AA2z  | gg3 fedc  | B2A2 z2GB  | \
w:  ma mış sın    |  De se ne  ki   |  gü ze lim   |  sen  hiç  ya şa  | 
AG3 G4  | 
w:  ma mış sın    | 
GG2G cc2c  | gg2g .e'2z2  | c'c'2c' d'd'2d'  | \
w:  SAZ  |   |   | 
bc'af g4  | 
w:   | 
zg2g g2g2  | e'2e'2 e'4  | d'2c'2 b2a2  | \
w:  Üs te lik  bu   |  â lem de   |  aşk tan  mah rum   | 
g2f2 f4  | z2de dc2z  | 
w:  kal mış san    |  De se ne  ki   | 
z2gg .g4  | f2e2 z2dc  | BB3 B4  | z2AA AA2z  | \
w:  gü ze lim   |  sen  hiç  ya şa  |  ma mış sın    |  De se ne  ki   | 
gg3 fedc  | 
w:  gü ze lim   | 
B2A2 z2GB  | AG3 G4  | cc2c cc2c  | ._1/4B2z2 _7/8ABAB  | \
w:  sen  hiç  ya şa  |  ma mış sın    |  SAZ  |   | 
cc2c cc2c  | 
w:   | 
._1/4B2z2 _7/8ABAB  | cc2c cc2c  | .g2z2 fedc  | \
w:   |   |   | 
_1/4BB2G _7/8AA2F  | 
w:   | 
Ged_1/4B .c2z2  | cc3 cc3  | c_1/4B2c B4  | \
w:   |  Su  ver di ğin   |  *  gon ca lar   | 
zd2d d3d  | de3 c4  | 
w:  aç ma dan  so  |  lu yor sa    | 
ee3 ee3  | e2df e4  | g2g2 g3g  | ^fg3 .f2z2  | \
w:  Sı ğın dı ğın   |  *  ge ce ler   |  in saf sız  o  |  lu yor sa    | 
cc3 cc3  | c_1/4B2c B4  | 
w:  Su  ver di ğin   |  *  gon ca lar   | 
zd2d d3d  | de3 c4  | ee3 ee3  | e2df e4  | \
w:  aç ma dan  so  |  lu yor sa    |  Sı ğın dı ğın   |  *  ge ce ler   | 
g2g2 g3g  | ^fg3 .f2z2  | 
w:  in saf sız  o  |  lu yor sa    | 
zg2g g2g2  | e'e'3 e'4  | d'2c'2 b3a  | \
w:  Üs te lik  bu   |  hi kâ ye   |  aşk sız  son  bu  | 
gf3 f4  | z2de d.c2z  | 
w:  lu yor sa    |  De se ne  ki   | 
z2gg g4  | f2e2 z2dc  | BB3 B4  | z2AA A.A2z  | \
w:  gü ze lim   |  sen  hiç  ya şa  |  ma mış sın    |  De se ne  ki   | 
gg3 fedc  | 
w:  gü ze lim   | 
B2A2 z2GB  | AG3 G4  | GG2G cc2c  | gg2g e'2z2  | \
w:  sen  hiç  ya şa  |  ma mış sın    |  SAZ  |   | 
c'c'2c' d'd'2d'  | 
w:   | 
bc'af g4  | zg2g g2g2  | e'e'3 e'4  | d'2c'2 b3a  | \
w:   |  Üs te lik  bu   |  hi kâ ye   |  aşk sız  son  bu  | 
gf3 f4  | z2de d.c2z  | 
w:  lu yor sa    |  De se ne  ki   | 
z2gg g4  | f2e2 z2dc  | BB3 B4  | z2AA A.A2z  | \
w:  gü ze lim   |  sen  hiç  ya şa  |  ma mış sın    |  De se ne  ki   | 
gg3 fedc  | 
w:  gü ze lim   | 
B2A2 z2GB  | AG3 G4  | GG2G cc2c  | gg2g e'4  | |


